X:1
T:Title
%%score 1 2 3 4
L:1/8
M:4/2
K:C
V:1 treble nm="Part_1"
V:2 treble-8 nm="Part_2"
V:3 treble-8 nm="Part_3"
V:4 bass nm="Part_4"
V:1
 z16 | z16 | z16 | G8 c6 B2 | A2 G2 G8 ^F4 | G16 | A16- | A16 | F16 | z16 | z16 | z16 | A8 c8 | %13
 B8 d8- | d8 c8 | A8 G4 A4- | A2 G2 G8 ^F4 | G16 || z16 | z16 | z8 G8- | G8 F8 | F4 E4 D8 | C16- | %24
 C16 | z16 | z16 | D8 F8 | G4 A6 G2 G4- | G4 ^F4 G8- | G8 z8 | z16 | B16 | c16 | A8 G8 | A8 c8 | %36
 A8 G4 A4 | B4 c6 B2 A2 G2 | F4 G8 ^F4 | G16 || z16 | z16 | z8 G8 | A16 | G16 | F8 z4 G4- | %46
 G4 F6 E2 E2 D2 | F16 | z16 | z16 | z16 | C8 D8 | F8 G4 A4- | A2 G2 G8 ^F4 | G16 | z16 | z16 | %57
 B8 c8 | A8 G8 | A6 G2 A4 c4- | c4 B4 A8 | G16- | G16 || z16 | z16 | z16 | c8 c8 | B8 A8 | c8 c8 | %69
 c8 G8 | z8 A8 | G8 A8 | G16 | F16 | z8 (A8 | c8) c8 | c8 G8 | z16 | A8 c8 | A8 G4 A4- | %80
 A4 B4 c6 B2 | A2 G2 G8 ^F4 | G16 || z16 | z16 | z16 | z16 | z16 | G8 d8 | d8 c8 | d8 c8 | B8 c8 | %92
 d4 e6 d2 d4- | d4 ^c4 d8 | z8 (A8 | d8) c8 | A8 c8 | c8 G8 | z8 A8 | G8 A8 | G8 F8 | %101
 A6 B2 c4 c4- | c4 B4 c8 | z16 | z16 | z4 G4 A4 B4 | c8 B4 A4- | A2 G2 G8 ^F4 | G16 || z16 | z16 | %111
 c8 B8 | c8 d8 | c8 A4 B4- | B2 A2 A8 G4 | A16 | z16 | F16 | A8 c8 | B8 c4 d4- | d4 ^c4 d8 | %121
 c12 B4 | A8 G8 | F8 A8 | A8 G4 c4- | c4 B4 A4 B4- | B2 A2 G8 ^F4 | G16 |] %128
V:2
 G8 c6 B2 | A2 G2 d6 c2 c4- | c4 B4 c8 | z4 e6 f2 g4 | f2 e2 d2 c2 d8 | z8 e8 | c8 d4 e4- | %7
 e2 d2 d8 ^c4 | d16 | z16 | z16 | z8 d8 | f8 e8 | g12 f2 e2 | d8 e8 | f8 e4 A4- | A2 B2 c4 d8 | %17
 d16 || z16 | z16 | d8 e4 e4- | e2 d2 c2 B2 A4 d4- | d2 c2 c8 B4 | c8 z8 | A8 G4 g4- | %25
 g4 a6 g2 g4- | g4 ^f4 g4 G4 | B6 c2 d6 c2 | B4 A4 (B8 | A8) G6 A2 | B2 c2 d4 G4 g4- | g4 e4 f8 | %32
 g8 e8 | e8 z8 | e16 | A8 z4 e4 | f6 d2 e4 f4- | f4 e4 c8- | c8 d8 | d16 || z16 | z16 | d8 e8 | %43
 d8 c4 f4- | f4 e2 d2 e8 | f4 d4 e8- | e4 c4 c8 | A16 | G8 z8 | z4 c4 A4 B4 | c8 B4 G4 | A8 B8 | %52
 A4 d4 e4 f4- | f2 e2 d2 c2 d8 | d2 c2 B2 A2 B8 | A8 z8 | e8 f8 | d8 c8 | f8 e8 | c4 f8 e2 d2 | %60
 c4 g8 f4 | g4 e8 d2 c2 | d16 || z16 | z16 | z8 f8 | f8 e8 | d8 f8 | f8 f8 | c8 z4 e4 | %70
 f6 ed c4 f4- | f2 e2 e8 d4 | e16 | d8 z8 | (d8 f8) | f8 f8 | c8 z8 | d8 f8 | d8 c8 | z8 z4 f4- | %80
 f4 f4 g4 f4- | f2 e2 c4 d8 | d16 || z16 | z16 | z16 | z16 | z16 | g8 f8- | f4 e2 d2 e8 | %90
 d4 f8 e4 | d4 e8 f4- | f4 g4 a4 f4 | e8 d8- | d8 z8 | z4 f4 f8 | f8 e6 d2 | c4 A4 B4 c4- | %98
 c4 d4 e8 | z4 e8 d4 | e8 A4 d4 | c4 f4 e4 a4 | g12 e4 | f4 e2 d2 c4 d4 | e4 f4 g8 | e8 z4 d4 | %106
 c4 A4 d6 c2 | A2 B2 c4 d8 | d16 || z16 | f8 e8 | f8 g6 f2 | e8 d4 g4 | e4 f8 d4 | f8 d4 e4 | %115
 f8 z4 f4 | e2 d2 d8 c4 | d8 A8 | z4 f4 e4 f4 | g6 f2 e4 d4 | e8 d8 | z8 z4 e4- | %122
 e2 d2 d6 c2 c2 Bc | d4 A4 z4 A4- | A2 G2 A4 B4 c4 | A4 B4 z4 G4 | B4 c4 d8 | d16 |] %128
V:3
 z16 | z16 | z8 G8 | c8 A4 G4 | c4 B4 A8 | G8 z4 c4- | c2 B2 A2 G2 F4 E4 | C4 D4 E8 | D8 z8 | %9
 A8 c8 | B8 d8- | d4 c4 B8 | A8 A8 | G16 | z8 G8 | F8 G4 c4- | c2 B2 A2 G2 A8 | G16 || d8 e4 d4- | %19
 d4 c2 B2 A2 G2 c4- | c4 B4 c8- | c8 z8 | z16 | e16 | f8 e8- | e4 d4 c4 B4 | A8 G8 | z8 z4 A4 | %28
 B4 c4 d8- | d8 B8 | z8 B8 | c8 A8 | G16 | z8 A8 | c8 B4 c4- | c4 d4 e4 c4- | c4 d4 B4 c4 | %37
 d4 e6 d2 c2 B2 | A4 G4 A8 | G16 || z8 G8 | A16 | G16 | F16 | z8 c8 | A8 B4 c4- | c2 B2 A4 G8 | %47
 F8 z8 | C8 D4 G4 | G4 A6 G2 G4- | G4 F4 G8 | z8 G8 | A8 B4 c4- | c4 B4 A8 | G16 | z8 B8 | c8 A8 | %57
 G8 z8 | d8 B4 c4- | c4 d8 c2 B2 | A4 G4 d6 c2 | B4 G4 c8 | B16 || z8 c8 | c8 B8 | A8 c8 | c8 c8 | %67
 G8 z8 | A6 B2 c4 A4- | A8 B4 c4 | d6 cB A4 d4 | B4 c8 A4 | (B8 c8) | A8 z4 A4 | B4 A4 d6 cB | %75
 A16 | z4 A4 B4 G4 | A4 B4 A4 d4 | f8 e4 c4- | c4 f4 e4 c4 | d8 e4 c4- | c2 B2 A2 G2 A8 | G16 || %83
 (G8 d8) | d8 c8 | d8 c8 | B8 c8 | d4 e6 d2 d4- | d4 c4 d8 | z4 A4 A8 | A8 A4 A4 | D4 G4 E4 A4- | %92
 A4 c6 B2 A2 G2 | A8 z4 A4 | B4 d8 c4 | B4 A4 A8 | c8 c8 | A8 e8- | e4 d4 c6 BA | B8 A4 d4- | %100
 d4 c4 d4 A4- | A2 B2 c2 d2 e4 f4 | d8 c8 | z4 G4 A4 B4 | c6 BA G4 c4- | c4 B4 A4 G4- | %106
 G4 F4 G4 D4 | F4 G4 A8 | G16 || z16 | z16 | z16 | c8 B8 | c8 d8- | d4 c4 B8 | A4 d8 c4 | %116
 B4 A8 G4 | A8 z4 d4- | d4 d4 c4 A4 | d8 c4 B4 | A8 D6 E2 | F2 G2 A8 G4- | G2 F2 F2 EF G8 | %123
 z4 d8 d4 | c4 d4 e8 | c4 d6 c2 B2 A2 | (G8 A8) | G16 |] %128
V:4
 z8 C,8 | F,16 | D,8 C,8- | C,8 z4 E,4 | F,4 G,4 D,8 | E,8 C,8 | F,6 E,2 D,4 C,4 | A,,4 D,4 A,,8 | %8
 z8 D,8 | F,8 E,8 | G,12 F,2 E,2 | D,4 E,4 G,4 G,4 | F,6 E,D, C,6 D,2 | E,8 z8 | B,,8 C,8 | %15
 D,8 E,4 F,4- | F,2 G,2 E,4 D,8 | G,,16 || G,16 | F,8 F,4 E,4 | D,8 C,8 | z16 | z8 G,8 | A,16 | %24
 F,8 C,6 D,2 | E,4 F,8 G,4 | D,8 E,4 G,4- | G,4 F,2 E,2 D,8 | z16 | z4 D,4 E,6 F,2 | G,8 E,8 | %31
 C,8 D,8 | E,16 | A,,16 | z4 A,,4 E,8 | F,8 C,8 | F,8 G,4 F,4 | D,4 C,8 F,4- | F,4 E,4 D,8 | %39
 G,,16 || D,8 E,8 | D,8 C,4 C,4- | C,4 B,,4 C,8 | z16 | C,16 | D,4 F,4 E,4 C,4 | E,4 F,4 C,8 | %47
 z4 D,6 E,2 F,4- | F,4 E,4 F,4 D,4 | E,4 C,4 D,4 B,,4 | A,,8 G,,8 | z4 C,4 B,,4 G,,4 | %52
 D,8 G,4 F,4- | F,4 G,4 D,8 | z8 E,8 | F,8 D,8 | C,8 z4 D,4 | B,,4 G,,4 A,,8 | z8 E,8 | %59
 F,4 D,8 E,4 | F,4 G,4 D,8 | G,,4 C,8 B,,2 A,,2 | G,,16 || F,8 F,8 | E,8 D,8 | F,8 F,8 | F,8 C,8 | %67
 z8 D,8 | A,,4 A,4 F,6 G,2 | A,4 F,4 E,8 | D,8 z4 D,4 | (E,8 F,8) | (E,8 C,8) | D,16- | D,16 | %75
 z4 A,4 F,6 G,2 | A,4 F,4 E,8 | D,4 G,4 F,4 D,4- | D,2 E,2 F,2 G,2 A,6 G,2 | F,4 D,4 E,4 F,4 | %80
 D,8 C,4 F,4- | F,4 E,4 D,8 | G,,16 || G,12 F,2 E,2 | D,4 F,4 E,8 | D,4 F,8 E,4 | D,4 E,8 F,4- | %87
 F,4 G,4 A,4 F,4 | E,8 D,8- | D,8 z4 A,,4 | D,8 A,,4 A,,4 | B,,4 G,,4 A,,8 | D,4 C,8 D,4 | %93
 A,,8 D,8 | G,8 F,8 | D,8 F,8 | F,8 C,8 | z4 F,4 E,6 D,2 | C,4 B,,4 A,,8 | (E,8 F,8) | %100
 E,8 D,6 E,2 | F,2 G,2 A,8 F,4 | G,8 z4 C,4 | D,4 E,4 F,4 E,2 D,2 | C,4 F,4 E,4 C,4 | %105
 E,6 D,2 C,4 B,,4 | A,,8 G,,4 D,4- | D,4 E,4 D,8 | G,,16 || F,8 E,8 | F,8 G,8 | A,8 G,8 | z8 G,8 | %113
 A,8 F,4 G,4 | D,4 F,4 G,8 | F,4 D,6 E,2 F,4 | G,4 F,4 E,8 | D,16 | D,8 A,8 | G,8 z8 | z8 z4 A,4- | %121
 A,2 G,2 F,2 E,2 F,4 G,4 | D,8 E,8 | D,8 D,8 | F,8 E,4 A,4- | A,4 G,4 F,4 G,4 | (E,8 D,8) | %127
 G,,16 |] %128

